src/xmb/monochrome/lakka.svg

<?xml version="1.0" encoding="UTF-8" standalone="no"?>
<!-- Generator: Adobe Illustrator 16.0.0, SVG Export Plug-In . SVG Version: 6.00 Build 0)  -->

<svg
   xmlns:dc="http://purl.org/dc/elements/1.1/"
   xmlns:cc="http://creativecommons.org/ns#"
   xmlns:rdf="http://www.w3.org/1999/02/22-rdf-syntax-ns#"
   xmlns:svg="http://www.w3.org/2000/svg"
   xmlns="http://www.w3.org/2000/svg"
   xmlns:sodipodi="http://sodipodi.sourceforge.net/DTD/sodipodi-0.dtd"
   xmlns:inkscape="http://www.inkscape.org/namespaces/inkscape"
   version="1.1"
   id="svg2"
   inkscape:export-filename="/home/kivutar/libretro-super/retroarch/media/assets/xmb/monochrome/png/lakka.png"
   inkscape:export-xdpi="360"
   inkscape:version="0.48.5 r10040"
   inkscape:export-ydpi="360"
   sodipodi:docname="lakka.svg"
   x="0px"
   y="0px"
   width="64px"
   height="64px"
   viewBox="0 128 64 64"
   enable-background="new 0 128 64 64"
   xml:space="preserve"><metadata
     id="metadata8"><rdf:RDF><cc:Work
         rdf:about=""><dc:format>image/svg+xml</dc:format><dc:type
           rdf:resource="http://purl.org/dc/dcmitype/StillImage" /><dc:title></dc:title></cc:Work></rdf:RDF></metadata><defs
     id="defs6" /><sodipodi:namedview
     pagecolor="#808080"
     bordercolor="#666666"
     borderopacity="1"
     objecttolerance="10"
     gridtolerance="10"
     guidetolerance="10"
     inkscape:pageopacity="0"
     inkscape:pageshadow="2"
     inkscape:window-width="1440"
     inkscape:window-height="836"
     id="namedview4"
     showgrid="true"
     inkscape:zoom="13.84375"
     inkscape:cx="32"
     inkscape:cy="33.4385"
     inkscape:window-x="0"
     inkscape:window-y="27"
     inkscape:window-maximized="1"
     inkscape:current-layer="svg2"><inkscape:grid
       type="xygrid"
       id="grid2985"
       empspacing="4"
       visible="true"
       enabled="true"
       snapvisiblegridlinesonly="true" /></sodipodi:namedview><path
     style="fill:#ffffff"
     d="M 32 5 C 9.585 5 5 9.553 5 32 C 5 54.447 9.514 59 32 59 C 54.489 59 59 54.456 59 32 C 59 9.542 54.415 5 32 5 z M 32 13 C 35.729468 13 38.863644 15.547023 39.75 19 C 39.834205 18.997378 39.915159 19 40 19 C 44.418278 19 48 22.58172 48 27 C 48 29.390682 46.943658 31.534053 45.28125 33 C 46.943658 34.465944 48 36.609307 48 39 L 48 47 L 40 47 C 37.609319 47 35.465947 45.943656 34 44.28125 L 34 49 A 2.0002 2.0002 0 1 1 30 49 L 30 44.28125 C 28.534053 45.943656 26.390681 47 24 47 L 16 47 L 16 39 C 16 36.609307 17.056342 34.465944 18.71875 33 C 17.056342 31.534053 16 29.390682 16 27 C 16 22.58172 19.581722 19 24 19 C 24.084841 19 24.165795 18.997378 24.25 19 C 25.136356 15.547023 28.270532 13 32 13 z "
     transform="translate(0,128)"
     id="Settings_1_" /><path
     inkscape:connector-curvature="0"
     style="fill:none;stroke:#ffffff;stroke-opacity:1;stroke-width:2;stroke-miterlimit:4;stroke-dasharray:none"
     d="M 45.333922,161.03757 C 46.970245,162.5024 48,164.63094 48,167 l 0,8 -8,0 c -3.743308,0 -6.886134,-2.57095 -7.759017,-6.04344"
     id="path5669-1-6-7-7"
     inkscape:export-filename="/home/kivutar/Bureau/path5669-5-3-0-4.png"
     inkscape:export-xdpi="270"
     inkscape:export-ydpi="270"
     sodipodi:nodetypes="cscsc" /><path
     style="fill:none;stroke:#ffffff;stroke-opacity:1;stroke-width:2;stroke-miterlimit:4;stroke-dasharray:none"
     d="M 18.68293,161.02253 C 17.036828,162.48781 16,164.62282 16,167 l 0,8 8,0 c 3.717281,0 6.842401,-2.53533 7.740481,-5.97114"
     id="path5669-1-3-3"
     inkscape:connector-curvature="0"
     inkscape:export-filename="/home/kivutar/Bureau/path5669-5-3-0-4.png"
     inkscape:export-xdpi="270"
     inkscape:export-ydpi="270"
     sodipodi:nodetypes="cscsc" /><path
     style="fill:none;stroke:#ffffff;stroke-opacity:1;stroke-width:2;stroke-miterlimit:4;stroke-dasharray:none"
     d="m 40,146.99998 c 4.41828,0 8,3.58172 8,8 0,4.41828 -3.58172,8 -8,8"
     id="path5669-2-92-1"
     inkscape:connector-curvature="0"
     inkscape:export-filename="/home/kivutar/Bureau/path5669-5-3-0-4.png"
     inkscape:export-xdpi="270"
     inkscape:export-ydpi="270"
     sodipodi:nodetypes="csc" /><path
     style="fill:none;stroke:#ffffff;stroke-opacity:1;stroke-width:2;stroke-miterlimit:4;stroke-dasharray:none"
     d="m 24,162.99998 c -4.418278,0 -8,-3.58172 -8,-8 0,-4.41828 3.581722,-8 8,-8"
     id="path5669-5-0-7"
     inkscape:connector-curvature="0"
     inkscape:export-filename="/home/kivutar/Bureau/path5669-5-3-0-4.png"
     inkscape:export-xdpi="270"
     inkscape:export-ydpi="270"
     sodipodi:nodetypes="csc" /><path
     style="fill:none;stroke:#ffffff;stroke-opacity:1;stroke-width:2;stroke-miterlimit:4;stroke-dasharray:none"
     d="M 37.299199,155.00665 C 38.955664,156.47237 40,158.61422 40,160.99998 c 0,4.41828 -3.581722,8 -8,8 -4.418278,0 -8,-3.58172 -8,-8 0,-2.38121 1.040354,-4.51943 2.691325,-5.98493"
     id="path5669-5-3-4-9"
     inkscape:connector-curvature="0"
     inkscape:export-filename="/home/kivutar/Bureau/path5669-5-3-0-4.png"
     inkscape:export-xdpi="270"
     inkscape:export-ydpi="270"
     sodipodi:nodetypes="csssc" /><path
     style="fill:none;stroke:#ffffff;stroke-opacity:1;fill-opacity:1;stroke-width:2;stroke-miterlimit:4;stroke-dasharray:none"
     d="m 40,148.99998 c 0,4.41828 -3.581722,8 -8,8 -4.418278,0 -8,-3.58172 -8,-8 0,-4.41828 3.581722,-8 8,-8 4.418278,0 8,3.58172 8,8 z"
     id="path5669-5-3-0-4-1"
     inkscape:connector-curvature="0"
     inkscape:export-xdpi="270"
     inkscape:export-ydpi="270" /></svg>

<svg xmlns="http://www.w3.org/2000/svg" xml:space="preserve" width="64" height="64" viewBox="0 128 64 64"><path d="M32 5C9.585 5 5 9.553 5 32s4.514 27 27 27c22.489 0 27-4.544 27-27C59 9.542 54.415 5 32 5m0 8a8 8 0 0 1 7.75 6c.084-.003.165 0 .25 0a8 8 0 0 1 8 8 7.98 7.98 0 0 1-2.719 6A7.98 7.98 0 0 1 48 39v8h-8a7.98 7.98 0 0 1-6-2.719V49a2 2 0 1 1-4 0v-4.719A7.98 7.98 0 0 1 24 47h-8v-8a7.98 7.98 0 0 1 2.719-6A7.98 7.98 0 0 1 16 27a8 8 0 0 1 8-8c.085 0 .166-.003.25 0A8 8 0 0 1 32 13" style="fill:#fff" transform="translate(0 128)"/><path d="M45.334 161.038A7.98 7.98 0 0 1 48 167v8h-8a8 8 0 0 1-7.759-6.043m-13.558-7.934A7.98 7.98 0 0 0 16 167v8h8a8 8 0 0 0 7.74-5.971" style="fill:none;stroke:#fff;stroke-opacity:1;stroke-width:2;stroke-miterlimit:4;stroke-dasharray:none"/><path d="M40 147a8 8 0 1 1 0 16m-16 0a8 8 0 1 1 0-16" style="fill:none;stroke:#fff;stroke-opacity:1;stroke-width:2;stroke-miterlimit:4;stroke-dasharray:none"/><path d="M37.3 155.007a8 8 0 1 1-10.608.008" style="fill:none;stroke:#fff;stroke-opacity:1;stroke-width:2;stroke-miterlimit:4;stroke-dasharray:none"/><path d="M40 149a8 8 0 1 1-16 0 8 8 0 0 1 16 0z" style="fill:none;stroke:#fff;stroke-opacity:1;fill-opacity:1;stroke-width:2;stroke-miterlimit:4;stroke-dasharray:none"/></svg>
